X: 1853
T: Ariel
R: hornpipe
M: 4/4
K: Amajor
A,>CE>A c2 B>A|B>EG>B d2 c>B|c>A (3cde a>ec>A|B>cd>c B>AG>E|
A,>CE>A c2 B>A|B>EG>B d2 c>B|c>eA>c B>dG>B|A2 (3AAA A2:|
a>ec>e a2 g>a|f>dA>d f2 e>d|(3cBA c>e a>ec>A|B>cd>c B>A (3GFE|
a>ec>e (3aba (3gag|f>d (3AB/c/d (3fgf e>d|(3cde A>c (3Bcd G>B|A2 a2 A2:|
AcEA c2 BA|BEGB d2 cB|cAce aecA|Bcdc BAGE|
AcEA c2 BA|BEGB d2 cB|ceAc BdGB|A2 A2 A2:|
aece a2 ga|fdAd f2 ed|cAce aecA|Bcdc BAGE|
aece aega|fdAd fAed|c2 Ac B2 GB|A2 a2 A2:|

